!!!!SEGMENT: pl-gd--ms-4006--001_pacelli-asprilio--vulnerasti-cor-meum.krn
!!!cenid: 16xx:1741
!!!COM: Pacelli, Asprilio
!!!COM-rismID: pe30009570
!!!CDT: 1570-1623/05/04
!!!CNT: Italian
!!!OTL: Vulnerasti cor meum
!!!PDT:
!!!AGN:
!!!SMS-siglum: PL-GD
!!!SMS-shelfmark: Ms 4006
!!!SMS-variant:
!!!SMS-altvar:
!!!SMS-shelfwork: 001 W
!!!NIFC-rismSourceID: 305000465
!!!NIFC-islandoraID: pl-gd:71737
!!!URL-pdf-islandora: https://repozytorium.nifc.pl/islandora/object/pl-gd%3A71737/datastream/PDF/view#page=8
!!!URL-scan: https://polish.musicsources.pl/pl/lokalizacje/galeria/rekopisy/5105 @EN{Scan on Polish Music Herritage in Open Access Website} @PL{Skany w portalu Dziedzictwo Muzyki Polskiej w otwartym dostępie}
!!!ONB-nifc: UWAGA: 6 ksiąg głosowych. Dla V6 i V7 - puste pięciolinie. Skany: Bassus: 6v-7r (skan 0008), Tenor : 7v-8r (skan 0158), Quintavox: 7v-8r (skan 0310), Octavavox: 6v-7r (skan 0459), Altus: 6v-7r (skan 0602), Discantus: 6v-7v (skan 0752-0753)
!!!AIN: 2 alto 2 bass 2 soprn 2 tenor
!!!key:
**kern	**text	**kern	**kern	**kern	**text	**kern	**text	**kern	**text	**kern	**text	**kern	**text
*part8	*part8	*part7	*part6	*part5	*part5	*part4	*part4	*part3	*part3	*part2	*part2	*part1	*part1
*staff8	*staff8	*staff7	*staff6	*staff5	*staff5	*staff4	*staff4	*staff3	*staff3	*staff2	*staff2	*staff1	*staff1
*I"Bassus chori secundi	*	*I"V 7	*I"V 6	*I"Cantus 2. chori super:	*	*I"Bassus chori superioris	*	*I"Tenor secundus ch	*	*I"Altus Chori Sup:	*	*I"Discantus Sup Chor.	*
*I'V 8	*	*I'V 7	*I'V 6	*I'V 5	*	*I'B	*	*I'T	*	*I'A	*	*I'S	*
*Ibass	*	*Itenor	*Ialto	*Isoprn	*	*Ibass	*	*Itenor	*	*Ialto	*	*Isoprn	*
*ICvox	*	*ICvox	*ICvox	*ICvox	*	*ICvox	*	*ICvox	*	*ICvox	*	*ICvox	*
*clefF4	*	*clefC4	*clefC3	*clefC1	*	*clefF3	*	*clefC4	*	*clefC3	*	*clefC1	*
*k[b-]	*	*k[b-]	*k[b-]	*k[b-]	*	*k[b-]	*	*k[b-]	*	*k[b-]	*	*k[b-]	*
*B-:	*	*B-:	*B-:	*B-:	*	*B-:	*	*B-:	*	*B-:	*	*B-:	*
*M2/1	*	*M2/1	*M2/1	*M2/1	*	*M2/1	*	*M2/1	*	*M2/1	*	*M2/1	*
*met(C|)	*	*met(C|)	*met(C|)	*met(C|)	*	*met(C|)	*	*met(C|)	*	*met(C|)	*	*met(C|)	*
=1-	=1-	=1-	=1-	=1-	=1-	=1-	=1-	=1-	=1-	=1-	=1-	=1-	=1-
!	!	!	!LO:TX:t=P:problem:brak partii, źródło wybrakowane	!	!	!	!	!	!	!	!	!LO:TX:a:B:t=Prestissimo	!
00r	.	0ryy	0ryy	4g/	Vul-	2r	.	00r	.	2r	.	2r	.
.	.	.	.	4g/	-ne-	.	.	.	.	.	.	.	.
.	.	.	.	1b-	-raſ-	4G\	Vul-	.	.	4g\	Vul-	4dd\	Vul-
.	.	.	.	.	.	4G\	-ne-	.	.	4g\	-ne-	4dd\	-ne-
.	.	.	.	.	.	2B-\	-raſ-	.	.	2f\	-raſ-	2dd\	-raſ-
.	.	.	.	4b-\	-ti	4E-X/	-ti	.	.	4g\	-ti	4dd\	-ti
.	.	.	.	4b-\	cor	4E-/	cor	.	.	4g\	cor	4dd\	cor
=2-	=2-	=2-	=2-	=2-	=2-	=2-	=2-	=2-	=2-	=2-	=2-	=2-	=2-
.	.	0ryy	0ryy	2a\	me-	2F/	me-	.	.	2f\	me-	2cc\	me-
.	.	.	.	2b-,\	-um	2BB-,/	-um,	.	.	2f,\	-um	2dd,\	-um
.	.	.	.	4a\	So-	4F/	So-	.	.	4f\	So-	4cc\	So-
.	.	.	.	4a\	-ror	4F/	-ror	.	.	4f\	-ror	4cc\	-ror
.	.	.	.	1a\	me-	1F\	me-	.	.	1f\	me-	1b-\	me-
=3-	=3-	=3-	=3-	=3-	=3-	=3-	=3-	=3-	=3-	=3-	=3-	=3-	=3-
0r	.	0ryy	0ryy	.	.	.	.	0r	.	.	.	.	.
.	.	.	.	1cc	-a	2C/	-a	.	.	2g\	-a	2ee\	-a
.	.	.	.	.	.	1G	spon-	.	.	1g	ſpon-	1dd	ſpon-
!	!	!	!	!LO:N:acc=#	!	!	!	!	!	!	!	!	!
.	.	.	.	2bn\	spon-	.	.	.	.	.	.	.	.
=4-	=4-	=4-	=4-	=4-	=4-	=4-	=4-	=4-	=4-	=4-	=4-	=4-	=4-
1r	.	0ryy	0ryy	1cc,	-ſa,	1C,	-ſa,	1r	.	1e,	-sa,	2cc,\	-sa,
.	.	.	.	.	.	.	.	.	.	.	.	4g/	vul-
.	.	.	.	.	.	.	.	.	.	.	.	4g/	-ne-
*	*	*	*	*	*ij	*	*	*	*	*	*ij	*	*
4GG/	Vul-	.	.	4dd\	so-	4G\	vul-	4G/	Vul-	4g\	Vul-	1b-	-raſ-
4GG/	-ne-	.	.	4dd\	-ror	4G\	-ne-	4G/	-ne-	4g\	-ne-	.	.
1GG/	-raſ-	.	.	2dd\	me-	1G\	-raſ-	2G/	-raſ-	2g\	-ras-	.	.
=5-	=5-	=5-	=5-	=5-	=5-	=5-	=5-	=5-	=5-	=5-	=5-	=5-	=5-
.	.	0ryy	0ryy	2dd,\	-a	.	.	2G,/	-ti	2g\	-ti	2b-,\	-ti
*	*	*	*	*	*	*	*	*	*ij	*	*	*	*
2GG,/	-ti	.	.	4b-y\	me-	4G,\	-ti	2.B-\	vul-	2.d\	cor	4dd\	cor
*	*	*	*	*	*	*	*ij	*	*	*	*	*	*
.	.	.	.	4b-\	-a	2B-\	vul-	.	.	.	.	4dd\	me-
*	*ij	*	*	*	*	*	*	*	*	*	*	*	*
4BB-/	vul-	.	.	1b-	spon-	.	.	.	.	.	.	1dd	-u(m),
4BB-/	-ne-	.	.	.	.	4B-\	-ne-	4B-\	-ne-	4e\	.	.	.
1BB-/	-ras-	.	.	.	.	2B-\	-ras-	1B-\	-ras-	2f\	me-	.	.
=6-	=6-	=6-	=6-	=6-	=6-	=6-	=6-	=6-	=6-	=6-	=6-	=6-	=6-
!	!	!	!	!	!	!LO:TX:t=P:problem:inna wartość	!	!	!	!	!	!	!
!	!	!	!	!	!	!LO:N:vis=1	!	!	!	!	!	!	!
.	.	0ryy	0ryy	2b-\	-sa	2B-\	-ti	.	.	2f\	-um	2dd\	.
*	*	*	*	*	*Xij	*	*Xij	*	*	*	*Xij	*	*
4E-X\	-ti	.	.	2r	.	2r	.	4B-\	-ti	2r	.	2r	.
*	*Xij	*	*	*	*	*	*	*	*Xij	*	*	*	*
4E-\	cor	.	.	.	.	.	.	4B-\	cor	.	.	.	.
2F\	me-	.	.	2r	.	2r	.	2A/	me-	2r	.	2r	.
2BB-,/	-um,	.	.	4dd\	vul-	4B-\	vul-	2B-,\	-um,	4f\	So-	4b-\	So-
.	.	.	.	4dd\	-ne-	4B-\	-ne-	.	.	4f\	-ror	4b-\	-ror
=7-	=7-	=7-	=7-	=7-	=7-	=7-	=7-	=7-	=7-	=7-	=7-	=7-	=7-
*	*	*	*	*	*	*	*	*	*ij	*	*	*	*
4BB-/	uul-	0ryy	0ryy	1dd	-raſ-	1B-	-raſ-	4F/	vul-	1f	me-	1b-	me-
4BB-/	-we-	.	.	.	.	.	.	4F/	-ne-	.	.	.	.
1BB-	-raſ-	.	.	.	.	.	.	2B-\	-ras-	.	.	.	.
.	.	.	.	2dd\	-ti	2B-,\	-ti,	1F	-ti	2d,\	-a,	2b-\	-a
*	*	*	*	*	*ij	*	*ij	*	*	*	*	*	*ij
2BB-,/	-ti,	.	.	4b-\	vul-	4B-\	vul-	.	.	4f\	vul-	4dd\	so-
.	.	.	.	4b-\	-ne-	4B-\	-ne-	.	.	4f\	-ne-	4dd\	-ror
=8-	=8-	=8-	=8-	=8-	=8-	=8-	=8-	=8-	=8-	=8-	=8-	=8-	=8-
*	*ij	*	*	*	*	*	*	*	*	*	*	*	*
4BB-/	vul-	0ryy	0ryy	1.b-	-ras-	1.B-	-ras-	4F/	vul-	1.f	-raſ-	1.dd	me-
4BB-/	-ne-	.	.	.	.	.	.	4F/	-ne-	.	.	.	.
1BB-	-ras-	.	.	.	.	.	.	1B-	-ras-	.	.	.	.
4E-X,\	-ti	.	.	4b-\	-ti	4G\	-ti	4B-,\	-ti	4B-/	-ti	4ee-X\	-a
*	*Xij	*	*	*	*Xij	*	*Xij	*	*Xij	*	*	*	*Xij
!	!	!	!	!	!	!	!	!	!	!	!	!LO:TX:t=P:problem:koniec systemu niewidoczny przez zgięcie	!
4E-\	cor	.	.	4g/	cor	4G\	cor	4B-\	cor-	4B-/	cor	4ryy	.
!	!	!	!	!	!	!LO:LB:g=original	!	!	!	!	!	!LO:LB:g=original	!
=9-	=9-	=9-	=9-	=9-	=9-	=9-	=9-	=9-	=9-	=9-	=9-	=9-	=9-
2F\	me-	0ryy	0ryy	2a\	me-	2F/	me-	2A/	-me-	2f\	me-	2cc\	ſpon-
2BB-,/	-u(m)	.	.	2b-\	-u(m),	2B-\	-um	2F,/	-u(m)	2f\	-um	2dd\	-sa
!	!	!	!	!LO:SIC:v:t=custos cc	!	!	!	!	!	!LO:SIC:v:t=custos f	!	!	!
!	!	!	!	!LO:LB:g=original	!	!	!	!	!	!LO:LB:g=original	!	!	!
4F\	So-	.	.	2r	.	2r	.	4A/	So-	2r	.	2r	.
4F\	-ror	.	.	.	.	.	.	4A/	-ror	.	.	.	.
1F\	me-	.	.	4cc\	So-	4F/	So-	2A/	me-	4f\	So-	4a\	So-
.	.	.	.	4cc\	-ror	4F/	-ror	.	.	4f\	-ror	4a\	-ror
=10-	=10-	=10-	=10-	=10-	=10-	=10-	=10-	=10-	=10-	=10-	=10-	=10-	=10-
.	.	0ryy	0ryy	1cc	me-	1F	me-	1F,	-a	1f	me-	1a	me-
2FF/	-a,	.	.	.	.	.	.	.	.	.	.	.	.
*	*	*	*	*	*	*	*	*	*ij	*	*	*	*
!LO:SIC:v:t=custos C	!	!	!	!	!	!	!	!	!	!	!	!	!
!LO:LB:g=original	!	!	!	!	!	!	!	!	!	!	!	!	!
4C/	So-	.	.	2cc\	-a	2C,/	-a,	4G/	so-	2e,\	-a	2g,/	-a
4C/	-ror	.	.	.	.	.	.	4G/	-ror	.	.	.	.
*	*	*	*	*	*ij	*	*ij	*	*	*	*ij	*	*ij
1C/	me-	.	.	4g/	so-	4C/	So-	2G/	me-	4e\	so-	4cc\	so-
.	.	.	.	4g/	-ror	4C/	-ror	.	.	4e\	-ror	4cc\	-ror
!	!	!	!	!	!	!	!	!LO:SIC:v:t=custos G	!	!	!	!	!
!	!	!	!	!	!	!	!	!LO:LB:g=original	!	!	!	!	!
=11-	=11-	=11-	=11-	=11-	=11-	=11-	=11-	=11-	=11-	=11-	=11-	=11-	=11-
.	.	0ryy	0ryy	2g/	me-	2C/	me-	2.G/	-a	2e\	me-	2cc\	me-
2GG/	-a	.	.	2b-\	-a	2G\	-a	.	.	1g	-a	2dd,\	-a
*	*	*	*	*	*Xij	*	*Xij	*	*	*	*Xij	*	*Xij
.	.	.	.	.	.	.	.	4B-\	so-	.	.	.	.
1D	spon-	.	.	1a	ſpon-	1D	spon-	4d\	-ror	.	.	1dd	ſpon-
.	.	.	.	.	.	.	.	8c\L	.	.	.	.	.
.	.	.	.	.	.	.	.	8B-\J	.	.	.	.	.
.	.	.	.	.	.	.	.	2A/	me-	2f#X\	Spon-	.	.
=12-	=12-	=12-	=12-	=12-	=12-	=12-	=12-	=12-	=12-	=12-	=12-	=12-	=12-
1GG	-ſa,	0ryy	0ryy	2b-,\	-ſa,	2G,\	-ſa	1G	-a	2g,\	-ſa,	2dd\	-ſa
*	*	*	*	*	*	*	*	*	*Xij	*	*	*	*
.	.	.	.	4dd\	vul-	4G\	vul-	.	.	4g\	vul-	4b-\	vul-
.	.	.	.	4b-\	-ne-	4G\	-ne-	.	.	4g\	-ne-	4dd\	-ne-
1r	.	.	.	2b-\	-raſ-	2B-\	-raſ-	1r	.	2fny\	-raſ-	2dd\	-raſ-
.	.	.	.	4b-\	-ti	4E-X/	-ti	.	.	4g\	-ti	4ee-X\	-ti
.	.	.	.	4b-\	cor	4E-/	cor	.	.	4g\	cor	4ee-\	cor
=13-	=13-	=13-	=13-	=13-	=13-	=13-	=13-	=13-	=13-	=13-	=13-	=13-	=13-
2r	.	0ryy	0ryy	2a\	me-	2F/	me-	2r	.	2f\	me-	2cc\	me-
4BB-/	Vul-	.	.	2b-\	-u(m),	2BB-/	-u(m),	4B-\	Vul-	2f\	-u(m),	2dd\	-u(m),
4BB-/	-ne-	.	.	.	.	.	.	4B-,\	-ne-	.	.	.	.
2BB-/	-raſ-	.	.	1r	.	1r	.	2B-\	-raſ-	1r	.	1r	.
4E-X\	-ti	.	.	.	.	.	.	4B-\	-ti	.	.	.	.
4E-\	cor	.	.	.	.	.	.	4B-,\	cor	.	.	.	.
=14-	=14-	=14-	=14-	=14-	=14-	=14-	=14-	=14-	=14-	=14-	=14-	=14-	=14-
2F\	me-	0ryy	0ryy	2r	.	2r	.	2A/	me-	2r	.	2r	.
4BB-,/	-u(m),	.	.	2b-\	in	2BB-/	in	4B-,\	-u(m),	2f\	in	2dd\	in
4BB-/	in	.	.	.	.	.	.	4F/	in	.	.	.	.
4.FF/	u-	.	.	4.a\	u-	4.F/	u-	4.F/	u-	4.f\	u-	4.cc\	u-
8FF/	-no	.	.	8a\	-no	8F/	-no	8F/	-no	8f\	-no	8cc\	-no
4FF/	o-	.	.	4a\	o-	4F/	o-	4F/	o-	4f\	o-	4cc\	o-
4FF/	-cu-	.	.	4a\	-cu-	4F/	-cu-	4A,/	-cu-	4f\	-cu-	4cc\	-cu-
=15-	=15-	=15-	=15-	=15-	=15-	=15-	=15-	=15-	=15-	=15-	=15-	=15-	=15-
2C/	-lo-	0ryy	0ryy	2g/	-lo-	2C/	-lo-	4E/	-lo-	2e\	-lo-	2cc\	-lo-
.	.	.	.	.	.	.	.	2G/	.	.	.	.	.
4C/	-ru(m)	.	.	4g/	-ru(m)	4C/	-ru(m)	.	.	4e\	-ru(m)	4cc\	-ru(m)
*	*ij	*	*	*	*	*	*	*	*	*	*	*	*
4C/	in	.	.	4cc\	tu-	4C/	tu-	4E,/	-ru(m)	4g\	tu-	4cc\	tu-
!	!	!	!	!	!	!	!	!	!	!	!	!LO:SIC:v:t=custos dd	!
!	!	!	!	!	!	!	!	!	!	!	!	!LO:LB:g=original	!
!	!	!	!	!LO:N:acc=#	!	!	!	!	!	!	!	!LO:TX:t=P:problem:wytarta pierwsza nuta	!
1GG	u-	.	.	4bn\	-o-	1G\	-o-	4G/	tu-	1g	-o-	2dd\	-o-
.	.	.	.	2cc\	-ru(m),	.	.	8F/L	-o-	.	.	.	.
.	.	.	.	.	.	.	.	8E/J	.	.	.	.	.
.	.	.	.	.	.	.	.	2D,/	-ru(m)	.	.	1g\	-rum
!	!	!	!	!LO:N:acc=#	!	!	!	!	!	!	!	!	!
*	*	*	*	*	*ij	*	*	*	*	*	*	*	*
.	.	.	.	4bn\	in	.	.	.	.	.	.	.	.
=16-	=16-	=16-	=16-	=16-	=16-	=16-	=16-	=16-	=16-	=16-	=16-	=16-	=16-
*	*	*	*	*	*	*	*	*	*ij	*	*	*	*
2C,/	-no	0ryy	0ryy	2cc,\	u-	2C,/	-rum	2E,/	in	2e,\	-ru(m),	.	.
!	!	!	!	!	!	!LO:LB:g=original	!	!	!	!	!	!	!
*	*	*	*	*	*	*	*ij	*	*	*	*ij	*	*ij
2FF/	o-	.	.	2cc\	-no	2F/	in	2A/	u-	2f\	in	2a\	vul-
4.FF/	-cu-	.	.	4.a\	o-	4.F/	u-	4.A/	-no	4.f\	u-	4.cc\	-ne-
8FF/	-lo-	.	.	8a\	-cu-	8F/	-no	8A/	o-	8f\	-no	8cc\	-ras-
4FF/	-rum	.	.	4a\	-lo-	4F/	o-	4A/	-cu-	4f\	o-	4cc\	-ti
4FF/	in	.	.	4a\	-rum	4F/	-cu-	4F,/	-lo-	4f\	-cu-	4cc\	cor
!	!	!	!	!LO:SIC:v:t=custos g	!	!	!	!	!	!LO:SIC:v:t=custos e	!	!	!
!	!	!	!	!LO:LB:g=original	!	!	!	!	!	!LO:LB:g=original	!	!	!
=17-	=17-	=17-	=17-	=17-	=17-	=17-	=17-	=17-	=17-	=17-	=17-	=17-	=17-
2C/	u-	0ryy	0ryy	4.g/	tu-	2C/	-lo-	4G/	-rum	2e\	-lo-	2cc\	me-
.	.	.	.	.	.	.	.	2c\	tu-	.	.	.	.
.	.	.	.	8g/	-o-	.	.	.	.	.	.	.	.
4C/	-no o-	.	.	4g/	-rum	4C/	-rum	.	.	4e\	-rum	4cc\	-um
4C/	-cu-	.	.	2cc\	o-	4C/	tu-	4G/	.	4g\	tu-	4cc\	tu-
!LO:SIC:v:t=custos GG	!	!	!	!	!	!	!	!LO:SIC:v:t=custos G	!	!	!	!	!
!LO:LB:g=original	!	!	!	!	!	!	!	!LO:LB:g=original	!	!	!	!	!
1GG	-lo-	.	.	.	.	1G	-o-	1G	-o-	1g	-o-	2dd\	-o-
!	!	!	!	!LO:N:acc=#	!	!	!	!	!	!	!	!	!
.	.	.	.	8bn\L	-cu-	.	.	.	.	.	.	.	.
.	.	.	.	8a\J	.	.	.	.	.	.	.	.	.
!	!	!	!	!LO:N:acc=#	!	!	!	!	!	!	!	!	!
.	.	.	.	2bn\	-lo-	.	.	.	.	.	.	1g\	-rum
*	*	*	*	*	*	*	*	*	*	*	*	*	*Xij
=18-	=18-	=18-	=18-	=18-	=18-	=18-	=18-	=18-	=18-	=18-	=18-	=18-	=18-
1C	-rum	0ryy	0ryy	2cc,\	-rum	2C,/	-rum	1G	-rum	2e,\	-rum	.	.
*	*Xij	*	*	*	*Xij	*	*Xij	*	*Xij	*	*Xij	*	*
!	!	!	!	!	!	!	!	!	!	!LO:TX:t=P:problem:niewyraźne	!	!	!
.	.	.	.	4.cc\	[et]	4.C/	[et]	.	.	4.g\	[et]	4.g/	[et]
.	.	.	.	8cc\	in	8C/	in	.	.	8e\	-in	8g,/	in
1r	.	.	.	4b-y\	u-	4D/	u-	1r	.	4f\	u-	4dd\	u-
.	.	.	.	4g/	-no	4E/	-no	.	.	4g\	-no	4cc\	-no
.	.	.	.	4.a\	crin	4.F/	cri-	.	.	4.f\	cri-	4.cc\	cri-
.	.	.	.	8a\	e	8F/	-ne	.	.	8f\	-ne	8cc,\	-ne
=19-	=19-	=19-	=19-	=19-	=19-	=19-	=19-	=19-	=19-	=19-	=19-	=19-	=19-
1r	.	0ryy	0ryy	4a\	col-	4F/	col-	1r	.	4f\	col-	4cc\	col-
.	.	.	.	4cc\	-li-	4A\	-li-	.	.	4e\	-li	4c,/	-li
.	.	.	.	2b-\	-tu-	2G\	-tu-	.	.	2g\	tu-	4d/	tu-
.	.	.	.	.	.	.	.	.	.	.	.	4e,/	.
4.FF/	[et]	.	.	2a\	-i,	2F/	-i,	4.A/	[et]	2c/	-i,	2f/	-i,
8FF/	in	.	.	.	.	.	.	8A/	in	.	.	.	.
4GG/	u-	.	.	2r	.	2r	.	4B-\	u-	2r	.	2r	.
4AA/	-no	.	.	.	.	.	.	4c\	-no	.	.	.	.
=20-	=20-	=20-	=20-	=20-	=20-	=20-	=20-	=20-	=20-	=20-	=20-	=20-	=20-
4.BB-/	e-	0ryy	0ryy	1r	.	1r	.	4.B-\	cri-	4r	.	1r	.
.	.	.	.	.	.	.	.	.	.	2.r	.	.	.
8BB-/	-ri-	.	.	.	.	.	.	8B-\	-ne	.	.	.	.
4BB-/	-ve	.	.	.	.	.	.	4B-\	tol-	.	.	.	.
4D/	col-	.	.	.	.	.	.	4A/	-li-	.	.	.	.
2C/	-li-	.	.	2r	.	2r	.	2c\	-tu-	2r	.	2r	.
*	*	*	*	*	*ij	*	*ij	*	*	*	*ij	*	*
2BB-/	-tui;	.	.	4.dd\	et	4.BB-/	et	2F/	-i;	4.f\	[et]	4.b-\	[et]
.	.	.	.	8dd\	in	8BB-/	in	.	.	8f\	in	8b-\	in
=21-	=21-	=21-	=21-	=21-	=21-	=21-	=21-	=21-	=21-	=21-	=21-	=21-	=21-
0r	.	0ryy	0ryy	4dd\	u-	4D/	u-	0r	.	4f\	u-	4b-\	u-
.	.	.	.	4cc\	-no	4E/	-no	.	.	4g\	-no	4g/	-no
.	.	.	.	4.cc\	cri-	4.F/	cri-	.	.	4.f\	cri-	4.a\	cri-
.	.	.	.	8cc\	-ne	8F/	-ne	.	.	8f\	-ne-	8a\	-ne
.	.	.	.	4cc\	col-	4F/	col-	.	.	4f\	-col-	4a\	col-
.	.	.	.	4c/	-li	4A\	-li-	.	.	4e\	-li	4cc\	-li
.	.	.	.	4d/	tu-	2G\	-tu-	.	.	2g\	tu-	2b-\	tu-
.	.	.	.	4e/	.	.	.	.	.	.	.	.	.
=22-	=22-	=22-	=22-	=22-	=22-	=22-	=22-	=22-	=22-	=22-	=22-	=22-	=22-
1r	.	0ryy	0ryy	1f	-i	1F	-i	1r	.	1c	-i	1a	-i.
*	*	*	*	*	*Xij	*	*Xij	*	*	*	*Xij	*	*
!	!	!	!	!	!	!	!	!	!	!	!	!LO:SIC:v:t=custos cc	!
1ryy	.	.	.	1ryy	.	1ryy	.	1ryy	.	1r	.	1ryy	.
=23||-	=23||-	=23||-	=23||-	=23||-	=23||-	=23||-	=23||-	=23||-	=23||-	=23||-	=23||-	=23||-	=23||-
*M3/1	*	*M3/1	*M3/1	*M3/1	*	*M3/1	*	*M3/1	*	*M3/1	*	*M3/1	*
!!LO:TX:t=P:problem:met(O|) + 3/1
*met(O|)	*	*met(O|)	*met(O|)	*met(O|)	*	*met(O|)	*	*met(O|)	*	*met(O|)	*	*met(O|)	*
0.r	.	0.ryy	0.ryy	1a	Qua(m)	1F	Quam	0.r	.	1f	Qua(m)	1cc	Quam
.	.	.	.	1a	pul-	1D	pul-	.	.	1f	pul-	1dd	pul-
.	.	.	.	1b-	-chre	1BB-	-chre	.	.	1f	-chrae	1dd	-chrae
=24-	=24-	=24-	=24-	=24-	=24-	=24-	=24-	=24-	=24-	=24-	=24-	=24-	=24-
1F	Qua(m)	0.ryy	0.ryy	0a	ſunt,	0F	ſunt	1A	Quam	0f	ſunt,	1cc	ſunt
1D	pul-	.	.	.	.	.	.	1A	pul-	.	.	1r	.
1BB-	-chrae	.	.	1r	.	1r	.	1B-	-chrae	1r	.	1r	.
!	!	!	!	!LO:SIC:v:t=custos cc	!	!	!	!	!	!LO:SIC:v:t=custos f	!	!	!
!	!	!	!	!	!	!	!	!	!	!LO:LB:g=original	!	!	!
=25-	=25-	=25-	=25-	=25-	=25-	=25-	=25-	=25-	=25-	=25-	=25-	=25-	=25-
*	*	*	*	*	*ij	*	*ij	*	*	*	*ij	*	*ij
0FF	ſunt,	0.ryy	0.ryy	1cc	Quam	1F	quam	0.A	ſunt,	1f	Quam	1a	quam
.	.	.	.	1cc	pul-	1A	pul-	.	.	1f	pul-	1a	pul-
1r	.	.	.	1b-	-chrae	1B-	-chre	.	.	1f	-chrae	1dd	-chrae
=26||-	=26||-	=26||-	=26||-	=26||-	=26||-	=26||-	=26||-	=26||-	=26||-	=26||-	=26||-	=26||-	=26||-
*M2/1	*	*M2/1	*M2/1	*M2/1	*	*M2/1	*	*M2/1	*	*M2/1	*	*M2/1	*
*met(C|)	*	*met(C|)	*met(C|)	*met(C|)	*	*met(C|)	*	*met(C|)	*	*met(C|)	*	*met(C|)	*
1r	.	0ryy	0ryy	1a,	sunt	1F,	sunt	1r	.	1f,	sunt	1cc,	sunt
*	*	*	*	*	*Xij	*	*Xij	*	*	*	*Xij	*	*Xij
!LO:SIC:v:t=custos GG	!	!	!	!	!	!	!	!	!	!	!	!	!
!LO:LB:g=original	!	!	!	!	!	!	!	!	!	!	!	!	!
1.GG	mam-	.	.	2.dd\	mam-	1.G	Mam-	1D	mam-	1d	mam-	1b-	mam-
.	.	.	.	4cc\	.	.	.	.	.	.	.	.	.
=27-	=27-	=27-	=27-	=27-	=27-	=27-	=27-	=27-	=27-	=27-	=27-	=27-	=27-
.	.	0ryy	0ryy	2b-\	-mae	.	.	1D	-mae,	1d	-mae	2dd\	-mae
2D/	-mae.	.	.	2a\	tu-	2D/	-mae	.	.	.	.	2.dd\	tu-
1r	.	.	.	1g	.	1E-X	tu-	1r	.	2r	.	.	.
.	.	.	.	.	.	.	.	.	.	.	.	8cc\L	-ae,
.	.	.	.	.	.	.	.	.	.	.	.	8b-\J	.
.	.	.	.	.	.	.	.	.	.	1g\	tu-	2cc\	So-
!	!	!	!	!	!	!	!	!LO:SIC:v:t=custos B	!	!	!	!	!
!	!	!	!	!	!	!	!	!LO:LB:g=original	!	!	!	!	!
=28-	=28-	=28-	=28-	=28-	=28-	=28-	=28-	=28-	=28-	=28-	=28-	=28-	=28-
00r	.	0ryy	0ryy	1a,	-ae,	1D,	-ae,	0r	.	.	.	1dd,	-ror
.	.	.	.	.	.	.	.	.	.	2f#X\	-ae	.	.
.	.	.	.	4.b-\	So-	4.G\	So-	.	.	4.g\	so-	4.dd\	me-
.	.	.	.	8b-\	-ror	8G\	-ror	.	.	8g\	-ror	8dd\	-a
.	.	.	.	4b-\	me-	4G\	me-	.	.	4g\	me-	4dd\	ſpon-
.	.	.	.	4dd\	-a	4B-\	-a	.	.	4d\	-a	4g/	-ſa;
=29-	=29-	=29-	=29-	=29-	=29-	=29-	=29-	=29-	=29-	=29-	=29-	=29-	=29-
!	!	!	!	!LO:TX:b:t=P:problem:# below	!	!	!	!	!	!	!	!	!
.	.	0ryy	0ryy	4cc#\	spon-	1A	ſpon-	0r	.	1e	ſpon-	1a	.
.	.	.	.	2dd\	.	.	.	.	.	.	.	.	.
.	.	.	.	4ccny\	.	.	.	.	.	.	.	.	.
.	.	.	.	1dd	-ſa;	1D	-ſa	.	.	1f#X	-ſa.	1a	.
=30-	=30-	=30-	=30-	=30-	=30-	=30-	=30-	=30-	=30-	=30-	=30-	=30-	=30-
*M3/1	*	*M3/1	*M3/1	*M3/1	*	*M3/1	*	*M3/1	*	*M3/1	*	*M3/1	*
*met(3)	*	*met(3)	*met(3)	*met(3)	*	*met(3)	*	*met(3)	*	*met(3)	*	*met(3)	*
1BB-	Qua(m)	0.ryy	0.ryy	0.r	.	0.r	.	1B-	Qua(m)	0.r	.	0.r	.
1D	pul-	.	.	.	.	.	.	1B-	pul-	.	.	.	.
1F	-chrae	.	.	.	.	.	.	1A	-chrae	.	.	.	.
=31-	=31-	=31-	=31-	=31-	=31-	=31-	=31-	=31-	=31-	=31-	=31-	=31-	=31-
0BB-	ſunt,	0.ryy	0.ryy	1b-	Qua(m)	1BB-	Qua(m)	0B-	ſunt,	1fny	Qua(m)	1b-	Qua(m)
.	.	.	.	1b-	pul-	1D	pul-	.	.	1f	pul-	1b-	pul-
1r	.	.	.	1a	-chrae	1F	-chrae	1r	.	1f	-chrae	1a	-chrae
=32-	=32-	=32-	=32-	=32-	=32-	=32-	=32-	=32-	=32-	=32-	=32-	=32-	=32-
*	*ij	*	*	*	*	*	*	*	*ij	*	*	*	*
1BB-	quam	0.ryy	0.ryy	0.b-	ſunt,	0.BB-	ſ(un)t	1d	quam	0f	ſunt,	0b-	ſunt,
1D	pul-	.	.	.	.	.	.	1d	pul-	.	.	.	.
1F	-chrae	.	.	.	.	.	.	1c	-chrae	1r	.	1r	.
!	!	!	!	!	!	!LO:LB:g=original	!	!	!	!	!	!	!
=33||-	=33||-	=33||-	=33||-	=33||-	=33||-	=33||-	=33||-	=33||-	=33||-	=33||-	=33||-	=33||-	=33||-
*M2/1	*	*M2/1	*M2/1	*M2/1	*	*M2/1	*	*M2/1	*	*M2/1	*	*M2/1	*
*met(C|)	*	*met(C|)	*met(C|)	*met(C|)	*	*met(C|)	*	*met(C|)	*	*met(C|)	*	*met(C|)	*
1BB-,	sunt	0ryy	0ryy	1r	.	1r	.	1d,	sunt	1r	.	1r	.
*	*Xij	*	*	*	*	*	*	*	*Xij	*	*	*	*
1.GG	mam-	.	.	1.b-	mam-	1.G	mam-	4d\	mam-	1.g	ma(m)-	1.b-	ma(m)-
.	.	.	.	.	.	.	.	4c\	.	.	.	.	.
.	.	.	.	.	.	.	.	4B-\	.	.	.	.	.
.	.	.	.	.	.	.	.	4A/	.	.	.	.	.
=34-	=34-	=34-	=34-	=34-	=34-	=34-	=34-	=34-	=34-	=34-	=34-	=34-	=34-
.	.	0ryy	0ryy	.	.	.	.	2G/	.	.	.	.	.
2D/	mae	.	.	2a\	-mae,	2D/	-mae,	2A/	-mae	2f#X\	-mae,	2a\	-mae,
!	!	!	!	!	!	!	!	!	!	!	!	!LO:SIC:v:t=custos dd	!
!	!	!	!	!	!	!	!	!	!	!	!	!LO:LB:g=original	!
1E-X	tu-	.	.	0r	.	1r	.	1G	tu-	0r	.	0r	.
=35-	=35-	=35-	=35-	=35-	=35-	=35-	=35-	=35-	=35-	=35-	=35-	=35-	=35-
1D,	-ae.	0ryy	0ryy	.	.	0r	.	1A,	-ae,	.	.	.	.
4.G\	So-	.	.	1r	.	.	.	4.B-\	So-	1r	.	1r	.
8G\	-ror	.	.	.	.	.	.	8B-\	-ror	.	.	.	.
4G\	me-	.	.	.	.	.	.	4B-\	me-	.	.	.	.
4B-\	-a	.	.	.	.	.	.	4d\	-a	.	.	.	.
=36-	=36-	=36-	=36-	=36-	=36-	=36-	=36-	=36-	=36-	=36-	=36-	=36-	=36-
2A\	spo-	0ryy	0ryy	2r	.	2r	.	2c#X\	spon-	2r	.	2r	.
!	!	!	!	!	!	!	!	!	!	!LO:TX:b:t=P:problem:# below	!	!	!
!	!	!	!	!	!	!	!	!LO:SIC:v:t=custos A	!	!	!	!	!
!	!	!	!	!	!	!	!	!LO:LB:g=original	!	!	!	!	!
2D/	-ſa	.	.	4.dd\	So-	4.D/	So-	2d\	-ſam	4.f#X\	So-	4.a\	So-
.	.	.	.	8dd\	-ror	8D/	-ror	.	.	8f#\	-ror	8a\	-ror
!LO:SIC:v:t=custos D	!	!	!	!LO:SIC:v:t=custos dd	!	!	!	!	!	!LO:SIC:v:t=custos g	!	!	!
!LO:LB:g=original	!	!	!	!LO:LB:g=original	!	!	!	!	!	!LO:LB:g=original	!	!	!
2r	.	.	.	4dd\	me-	4G\	me-	2r	.	4g\	me-	4b-\	me-
.	.	.	.	4b-\	-a	4G\	-a	.	.	4g\	-a	4dd\	-a
*	*	*	*	*	*	*	*	*	*ij	*	*	*	*
4.D/	So-	.	.	4a\	ſpon-	2D/	spon-	4.A/	so-	2f#X\	spon-	2dd\	spon-
.	.	.	.	4a,\	-ſa,	.	.	.	.	.	.	.	.
8D/	-ror	.	.	.	.	.	.	8A/	-ror	.	.	.	.
=37-	=37-	=37-	=37-	=37-	=37-	=37-	=37-	=37-	=37-	=37-	=37-	=37-	=37-
*	*	*	*	*	*ij	*	*	*	*	*	*	*	*
4BB-/	me-	0ryy	0ryy	4.b-\	so-	2G,\	-ſa	4D/	me-	4g,\	-ſa,	2dd,\	-ſa
*	*	*	*	*	*	*	*	*	*	*	*ij	*	*
4GG/	-a	.	.	.	.	.	.	4d\	-a	2d\	So-	.	.
.	.	.	.	8g/	-ror	.	.	.	.	.	.	.	.
*	*	*	*	*	*	*	*ij	*	*	*	*	*	*ij
2D/	spon-	.	.	4a\	me-	4.D/	so-	2d\	spon-	.	.	4.dd\	so-
.	.	.	.	4a\	-a	.	.	.	.	4d\	-ror	.	.
.	.	.	.	.	.	8D/	-ror	.	.	.	.	8dd\	-ror
2GG,/	-sa	.	.	4b-\	spon-	4G\	me-	4d,\	-sa	4d\	me-	4dd\	me-
*	*	*	*	*	*	*	*	*	*Xij	*	*	*	*
.	.	.	.	4dd\	-sa	4G\	-a	2D/	So-	4g\	-a	4b-\	-a
4.D/	So-	.	.	2dd\	so-	2D/	spon-	.	.	2f#X\	spon-	2a\	spon-
.	.	.	.	.	.	.	.	4A/	-ror	.	.	.	.
8D/	-ror	.	.	.	.	.	.	.	.	.	.	.	.
=38-	=38-	=38-	=38-	=38-	=38-	=38-	=38-	=38-	=38-	=38-	=38-	=38-	=38-
1.GG	me-	0ryy	0ryy	2dd\	-ror	2G,\	-sa	1.G	me-	2g,\	-sa	2b-,\	-sa
*	*	*	*	*	*	*	*Xij	*	*	*	*Xij	*	*Xij
.	.	.	.	4dd\	me-	4G\	So-	.	.	4g\	So-	4b-\	So-
.	.	.	.	4dd\	-a	4G\	-ror	.	.	4d\	-ror	4b-\	-ror
.	.	.	.	2dd\	spon-	2G\	me-	.	.	4d\	me-	2b-\	me-
.	.	.	.	.	.	.	.	.	.	4d\	-a	.	.
2GG/	-a	.	.	2b-\	.	2G,\	-a	2G/	-a	1g\	ſpon-	2dd\	-a
=39-	=39-	=39-	=39-	=39-	=39-	=39-	=39-	=39-	=39-	=39-	=39-	=39-	=39-
0D	spon-	0ryy	0ryy	0a	.	0D	ſpon-	0A	spon-	.	.	0dd	spon-
.	.	.	.	.	.	.	.	.	.	4f#X\	-ſa,	.	.
.	.	.	.	.	.	.	.	.	.	4e\	.	.	.
.	.	.	.	.	.	.	.	.	.	1f#X	.	.	.
=40-	=40-	=40-	=40-	=40-	=40-	=40-	=40-	=40-	=40-	=40-	=40-	=40-	=40-
1GG	-sa,	0ryy	0ryy	1b-,	-sa	1G,	-ſa,	1G	-ſa,	1g,	.	1dd,	-sa,
*	*	*	*	*	*Xij	*	*	*	*	*	*	*	*
1r	.	.	.	4dd\	pul-	4G\	pul-	1r	.	4g\	pul-	4b-\	pul-
.	.	.	.	4cc\	-chri-	4A\	-chri-	.	.	4e\	-chri-	4cc\	-chri-
.	.	.	.	4.b-\	-o-	4B-\	-o-	.	.	4d\	-o-	4dd\	-o-
.	.	.	.	.	.	4c\	-ra	.	.	4e\	-ra	4b-\	-ra
.	.	.	.	8g/	-ra	.	.	.	.	.	.	.	.
=41-	=41-	=41-	=41-	=41-	=41-	=41-	=41-	=41-	=41-	=41-	=41-	=41-	=41-
0r	.	0ryy	0ryy	2cc\	ſunt	2F,/	ſ(un)t	0r	.	2fny\	ſunt	2a\	ſunt
.	.	.	.	4a\	u-	4F/	u-	.	.	4f\	u-	4cc\	u-
.	.	.	.	8a\	-be-	8F/	-be-	.	.	8f\	-be-	8cc\	-be-
.	.	.	.	8a\	-ra	8F/	-ra	.	.	8f\	-ra	8cc\	-ra
.	.	.	.	4b-\	tu-	4E-X/	tu-	.	.	4g\	tu-	4ee-X\	tu-
.	.	.	.	2b-\	-a	4BB-/	-a	.	.	4f\	-a	4dd\	-a
.	.	.	.	.	.	2F/	vi-	.	.	2f\	vi-	2cc\	vi-
.	.	.	.	4a\	vi-	.	.	.	.	.	.	.	.
!	!	!	!	!	!	!LO:SIC:v:t=custos BB	!	!	!	!	!	!	!
!	!	!	!	!	!	!LO:LB:g=original	!	!	!	!	!	!	!
=42-	=42-	=42-	=42-	=42-	=42-	=42-	=42-	=42-	=42-	=42-	=42-	=42-	=42-
4BB-/	pul-	0ryy	0ryy	1b-	-no,	1BB-	-no,	4d\	pul-	1f	-no,	1dd	-no,
4C/	-chri-	.	.	.	.	.	.	4cny\	-chri-	.	.	.	.
4D/	-o-	.	.	.	.	.	.	4B-\	-o-	.	.	.	.
4BB-/	-ra	.	.	.	.	.	.	4B-\	-ra	.	.	.	.
2F\	ſunt	.	.	0r	.	0r	.	2A/	ſunt	0r	.	0r	.
4F\	u-	.	.	.	.	.	.	4A/	u-	.	.	.	.
8F\	-be-	.	.	.	.	.	.	8A/	-be-	.	.	.	.
8F\	-ra	.	.	.	.	.	.	8A/	-ra	.	.	.	.
=43-	=43-	=43-	=43-	=43-	=43-	=43-	=43-	=43-	=43-	=43-	=43-	=43-	=43-
4E-X\	tu-	0ryy	0ryy	.	.	.	.	4B-\	tu-	.	.	.	.
4BB-/	-ae	.	.	.	.	.	.	4B-\	-a	.	.	.	.
2F\	vi-	.	.	.	.	.	.	2A/	vi-	.	.	.	.
1BB-	-no,	.	.	2r	.	2r	.	1B-	-no	2r	.	2r	.
.	.	.	.	4b-\	pul-	4B-\	pul-	.	.	4f\	pul-	4dd\	pul-
.	.	.	.	4cc\	-chri-	4A\	-chri-	.	.	4f\	-chri-	4cc\	-chri-
=44-	=44-	=44-	=44-	=44-	=44-	=44-	=44-	=44-	=44-	=44-	=44-	=44-	=44-
2r	.	0ryy	0ryy	4dd\	-o-	4G\	-o-	2r	.	4d\	-o-	4b-\	-o-
.	.	.	.	4b-\	-ra	4G\	-ra	.	.	4e\	-ra	4g/	-ra
4F\	pul-	.	.	2a\	ſunt,	2F/	ſunt	4c\	pul-	2f\	ſ(un)t.	2cc\	ſ(un)t
4G\	-chri-	.	.	.	.	.	.	4B-\	-chri-	.	.	.	.
!LO:SIC:v:t=custos A	!	!	!	!	!	!	!	!	!	!LO:SIC:v:t=custos f	!	!	!
!LO:LB:g=original	!	!	!	!	!	!	!	!	!	!LO:LB:g=original	!	!	!
4A\	-o-	.	.	2r	.	2r	.	4A/	-o-	4r	.	2r	.
*	*	*	*	*	*	*	*	*	*	*	*ij	*	*
4F\	-ra	.	.	.	.	.	.	4c\	-ra	4f\	pul-	.	.
*	*	*	*	*	*	*	*ij	*	*	*	*	*	*ij
2G\	ſunt,	.	.	4b-\	pul-	4G\	pul-	2B-\	ſ(un)t,	2d\	-chri-	4dd\	pul-
.	.	.	.	4cc\	-chri-	4A\	-chri-	.	.	.	.	4cc\	-chri-
!	!	!	!	!LO:SIC:v:t=custos dd	!	!	!	!	!	!	!	!LO:SIC:v:t=custos b	!
!	!	!	!	!LO:LB:g=original	!	!	!	!	!	!	!	!LO:LB:g=original	!
=45-	=45-	=45-	=45-	=45-	=45-	=45-	=45-	=45-	=45-	=45-	=45-	=45-	=45-
0r	.	0ryy	0ryy	4dd\	-o-	4B-\	-o-	0r	.	4d,\	-o-	4.b-\	-o-
.	.	.	.	4b-\	-ra	4G\	-ra	.	.	4e,\	-ra	.	.
.	.	.	.	.	.	.	.	.	.	.	.	8g/	-ra
.	.	.	.	2a\	ſunt,	2F,/	sunt	.	.	2f,\	sunt	2cc,\	sunt
*	*	*	*	*	*	*	*Xij	*	*	*	*Xij	*	*Xij
.	.	.	.	4a\	u-	4F/	u-	.	.	4f\	u-	4cc\	u-
.	.	.	.	8a\	-be-	8F/	-be-	.	.	8f\	-be-	8cc\	-be-
.	.	.	.	8a\	-ra	8F/	-ra	.	.	8f\	-ra	8cc\	-ra
.	.	.	.	4.g/	tu-	4G\	tu-	.	.	4d\	tu-	4b-\	tu-
.	.	.	.	.	.	4G\	-a	.	.	2d\	-a	4b-\	-a
.	.	.	.	8f/	-a	.	.	.	.	.	.	.	.
!	!	!	!	!	!	!	!	!LO:SIC:v:t=custos A	!	!	!	!	!
!	!	!	!	!	!	!	!	!LO:LB:g=original	!	!	!	!	!
=46-	=46-	=46-	=46-	=46-	=46-	=46-	=46-	=46-	=46-	=46-	=46-	=46-	=46-
2r	.	0ryy	0ryy	2e/	vi-	2A\	vi-	2r	.	.	.	2a\	vi-
.	.	.	.	.	.	.	.	.	.	4c#X/	vi-	.	.
4D/	u-	.	.	2f/	-no,	2D/	-no,	4A/	u-	2d\	-no,	2a\	-no,
8D/	-be-	.	.	.	.	.	.	8A/	-be-	.	.	.	.
8D/	-ra	.	.	.	.	.	.	8A/	-ra	.	.	.	.
4E-X\	tu-	.	.	1r	.	1r	.	4G/	tu-	1r	.	1r	.
4E-\	-a	.	.	.	.	.	.	4B-\	-a	.	.	.	.
2F\	vi-	.	.	.	.	.	.	2A/	vi-	.	.	.	.
=47-	=47-	=47-	=47-	=47-	=47-	=47-	=47-	=47-	=47-	=47-	=47-	=47-	=47-
2BB-/	-no.	0ryy	0ryy	4b-\	u-	4BB-/	u-	2B-\	-no;	4f\	u-	4dd\	u-
.	.	.	.	8b-\	-be-	8BB-/	-be-	.	.	8f\	-be-	8dd\	-be-
.	.	.	.	8b-\	-ra	8BB-/	-ra	.	.	8f\	-ra	8dd\	-ra
2r	.	.	.	4a/	tu-	4C/	tu-	2r	.	4e\	tu-	4cc\	tu-
.	.	.	.	2g/	-a	4C/	-a	.	.	4e\	-a	4cc\	-a
1r	.	.	.	.	.	2D/	vi-	1r	.	2d\	vi-	2a\	vi-
.	.	.	.	4f#X/	vi-	.	.	.	.	.	.	.	.
!	!	!	!	!	!	!	!	!	!	!	!	!LO:N:acc=#	!
.	.	.	.	2g,/	-no,	2G,\	-no,	.	.	2d,\	-no,	2bn,\	-no,
=48-	=48-	=48-	=48-	=48-	=48-	=48-	=48-	=48-	=48-	=48-	=48-	=48-	=48-
1GG	Et	0ryy	0ryy	1g	Et	1G	Et	1G	Et	1d	Et	1bny	[et]
1C	o-	.	.	2.g/	o-	1C	o-	2G/	o-	1e	o-	1cc	o-
.	.	.	.	.	.	.	.	2.G/	-dor	.	.	.	.
.	.	.	.	4a\	-dor	.	.	.	.	.	.	.	.
=49-	=49-	=49-	=49-	=49-	=49-	=49-	=49-	=49-	=49-	=49-	=49-	=49-	=49-
1GG	-dor	0ryy	0ryy	2b-\	un-	1G,	-dor	.	.	1g	-dor	1dd	-dor
.	.	.	.	.	.	.	.	8F/L	.	.	.	.	.
.	.	.	.	.	.	.	.	8E/J	.	.	.	.	.
.	.	.	.	2b-\	-guer-	.	.	4D/	.	.	.	.	.
.	.	.	.	.	.	.	.	4E/	.	.	.	.	.
2D/	un-	.	.	2a\	-to-	2D/	un-	4F/	.	2f\	un-	2dd\	un-
.	.	.	.	.	.	.	.	2F/	un-	.	.	.	.
2D/	-g(v)en-	.	.	2a\	-ru(m)	2D/	-gver-	.	.	2f\	-gven-	2dd\	-gve-
.	.	.	.	.	.	.	.	4F/	-gven-	.	.	.	.
=50-	=50-	=50-	=50-	=50-	=50-	=50-	=50-	=50-	=50-	=50-	=50-	=50-	=50-
1AA	-to-	0ryy	0ryy	1a	tu-	1A	-to-	4A/	-to-	1e	-to-	1cc#X	-to-
.	.	.	.	.	.	.	.	8G/L	.	.	.	.	.
.	.	.	.	.	.	.	.	8F/J	.	.	.	.	.
.	.	.	.	.	.	.	.	2E/	.	.	.	.	.
!	!	!	!	!	!	!LO:SIC:v:t=custos A	!	!	!	!	!	!	!
!	!	!	!	!	!	!LO:LB:g=original	!	!	!	!	!	!	!
2AA/	-ru(m),	.	.	2a\	-o-	2A\	-tum	2E/	-ru(m)	2e\	-ru(m)	2cc#\	-ru(m)
2D/	tu-	.	.	2a\	.	2D/	tu-	1D/	tu-	2f#X\	tu-	2dd\	tu-
=51-	=51-	=51-	=51-	=51-	=51-	=51-	=51-	=51-	=51-	=51-	=51-	=51-	=51-
0GG	-o-	0ryy	0ryy	4b-\	.	0G	-o-	.	.	0g	-o-	4dd\	-(o)-
.	.	.	.	4a\	.	.	.	.	.	.	.	4ccny\	.
.	.	.	.	4b-\	.	.	.	4d\	-o-	.	.	4b-y\	.
.	.	.	.	4cc\	.	.	.	4c\	.	.	.	4a\	.
.	.	.	.	1dd	.	.	.	4B-\	.	.	.	1b-	.
.	.	.	.	.	.	.	.	4A/	.	.	.	.	.
.	.	.	.	.	.	.	.	2G/	.	.	.	.	.
=52-	=52-	=52-	=52-	=52-	=52-	=52-	=52-	=52-	=52-	=52-	=52-	=52-	=52-
2D,/	-rum,	0ryy	0ryy	1dd	-ru(m),	1D	-rum,	2A,/	-ru(m),	1f#X	-rum.	1a	-rum,
4D/	Su-	.	.	.	.	.	.	4A/	Su-	.	.	.	.
4D/	-p(er)	.	.	.	.	.	.	4A/	-p(er)	.	.	.	.
4.D/	o(m)-	.	.	1r	.	1r	.	4.A/	o(m)-	1r	.	1r	.
8D/	-(n)i-	.	.	.	.	.	.	8A/	-(n)i-	.	.	.	.
!	!	!	!	!	!	!	!	!LO:SIC:v:t=custos A	!	!	!	!	!
!	!	!	!	!	!	!	!	!LO:LB:g=original	!	!	!	!	!
4D/	-a	.	.	.	.	.	.	4A/	-a	.	.	.	.
4BB-/	a-	.	.	.	.	.	.	4B-\	a-	.	.	.	.
!	!	!	!	!	!	!	!	!	!	!LO:SIC:v:t=custos g	!	!	!
!	!	!	!	!	!	!	!	!	!	!LO:LB:g=original	!	!	!
=53-	=53-	=53-	=53-	=53-	=53-	=53-	=53-	=53-	=53-	=53-	=53-	=53-	=53-
4C/	-ro-	0ryy	0ryy	2r	.	2r	.	4A/	-ro-	2r	.	2r	.
4D/	-ma-	.	.	.	.	.	.	4A/	-ma-	.	.	.	.
!LO:SIC:v:t=custos GG	!	!	!	!	!	!	!	!	!	!	!	!	!
!LO:LB:g=original	!	!	!	!	!	!	!	!	!	!	!	!	!
2GG/	-ta	.	.	4b-\	ſu-	4G\	Sup-	2G/	-ta,	4g\	Su-	4dd\	ſu-
.	.	.	.	4b-\	-per	4G\	-(er)	.	.	4g\	-per	4dd\	-p(er)
!	!	!	!	!LO:SIC:v:t=custos b	!	!	!	!	!	!	!	!	!
!	!	!	!	!LO:LB:g=original	!	!	!	!	!	!	!	!	!
1r	.	.	.	4.b-\	o(m)-	4.G\	o(m)-	1r	.	4.g\	o(m)-	4.dd\	o(m)-
.	.	.	.	8b-\	-(n)i-	8G\	-(n)i-	.	.	8g\	-(n)i-	8dd\	-(n)i-
.	.	.	.	4b-\	-a	4G\	-a	.	.	4g\	-a	4dd\	-a
.	.	.	.	4cc\	a-	4Eny/	a-	.	.	4g\	a-	4eeny\	a-
!	!	!	!	!	!	!	!	!	!	!	!	!LO:SIC:v:t=custos dd	!
!	!	!	!	!	!	!	!	!	!	!	!	!LO:PB:g=original	!
=54-	=54-	=54-	=54-	=54-	=54-	=54-	=54-	=54-	=54-	=54-	=54-	=54-	=54-
2r	.	0ryy	0ryy	4cc\	-ro-	4F/	-ro-	2r	.	4a\	-ro-	4dd\	-ro-
.	.	.	.	4b-\	-ma-	4G\	-ma-	.	.	4g\	-ma-	4dd\	-ma-
*	*ij	*	*	*	*	*	*	*	*ij	*	*	*	*
4C/	Su-	.	.	2cc\	-ta	2C/	-ta	4G/	Su-	2e\	-ta	2cc\	-ta,
4C/	-per	.	.	.	.	.	.	4G/	-per	.	.	.	.
4.C/	om-	.	.	1r	.	1r	.	4.G/	om-	1r	.	1r	.
8C/	-ni-	.	.	.	.	.	.	8G/	-ni-	.	.	.	.
4C/	-a	.	.	.	.	.	.	4G/	-a	.	.	.	.
4AA/	a-	.	.	.	.	.	.	4A/	a-	.	.	.	.
=55-	=55-	=55-	=55-	=55-	=55-	=55-	=55-	=55-	=55-	=55-	=55-	=55-	=55-
4BB-/	-ro-	0ryy	0ryy	2r	.	2r	.	4G/	-ro-	2r	.	2r	.
4C/	-ma-	.	.	.	.	.	.	4G/	-ma-	.	.	.	.
*	*	*	*	*	*ij	*	*ij	*	*	*	*ij	*	*ij
2FF/	-ta	.	.	4a\	su-	4F/	Su-	2F/	-ta	4fny\	su-	4cc\	su-
*	*Xij	*	*	*	*	*	*	*	*Xij	*	*	*	*
.	.	.	.	4a\	-per	4F/	-per	.	.	4f\	-per	4cc\	-per
1r	.	.	.	4.a\	om-	4.F/	om-	1r	.	4.f\	om-	4.cc\	om-
.	.	.	.	8a\	-ni-	8F/	-ni-	.	.	8f\	-ni-	8cc\	-ni-
.	.	.	.	4a\	-a	4F/	-a	.	.	4f\	-a	4cc\	-a
.	.	.	.	4b-\	a-	4D/	a-	.	.	4f\	a-	4ff\	a-
=56-	=56-	=56-	=56-	=56-	=56-	=56-	=56-	=56-	=56-	=56-	=56-	=56-	=56-
2r	.	0ryy	0ryy	4b-\	-ro-	4E-X/	-ro-	2r	.	4g\	-ro-	4ee-X\	-ro-
.	.	.	.	4a\	-ma-	4F/	-ma-	.	.	4f\	-ma-	4cc\	-ma-
4BB-/	Su-	.	.	2b-\	-ta	2BB-/	-ta	4B-\	Su-	2f\	-ta	2dd\	-ta
*	*	*	*	*	*Xij	*	*Xij	*	*	*	*Xij	*	*Xij
4BB-/	-per	.	.	.	.	.	.	4B-\	-p(er)	.	.	.	.
4.BB-/	o(m)-	.	.	1r	.	1r	.	4.B-\	o(m)-	1r	.	1r	.
8BB-/	-(n)i-	.	.	.	.	.	.	8B-\	-(n)i-	.	.	.	.
4BB-/	-a	.	.	.	.	.	.	4B-\	-a	.	.	.	.
4BB-/	a-	.	.	.	.	.	.	4B-\	a-	.	.	.	.
=57-	=57-	=57-	=57-	=57-	=57-	=57-	=57-	=57-	=57-	=57-	=57-	=57-	=57-
4C/	-ro-	0ryy	0ryy	2r	.	2r	.	4A/	-ro-	2r	.	2r	.
4D/	-ma-	.	.	.	.	.	.	4A/	-ma-	.	.	.	.
2GG/	-ta,	.	.	4r	.	4r	.	2G/	-ta,	4r	.	4r	.
.	.	.	.	4b-\	ſu-	4G\	a-	.	.	4g\	a-	4dd\	a-
2r	.	.	.	4cc\	-p(er)	4C/	-ro-	2r	.	4g\	-ro-	4ee-X\	-ro-
.	.	.	.	4a\	o(m)-	4D/	-ma-	.	.	4f\	-ma-	4dd\	-ma-
!	!	!	!	!	!	!LO:SIC:v:t=custos G	!	!	!	!	!	!	!
*	*	*	*	*	*	*	*	*	*ij	*	*	*	*
4G\	Su-	.	.	2b-\	-(n)i-	2G,\	-ta,	4B-\	Su-	2g,\	-ta,	2dd,\	-ta
4G\	-p(er)	.	.	.	.	.	.	4B-\	-per	.	.	.	.
=58-	=58-	=58-	=58-	=58-	=58-	=58-	=58-	=58-	=58-	=58-	=58-	=58-	=58-
4.G\	om-	0ryy	0ryy	4b-\	-a	4G\	Su-	4.d\	om-	4g\	Su-	4dd\	ſu-
.	.	.	.	4b-\	a-	4G\	-p(er)	.	.	4g\	-p(er)	4dd\	-p(er)
8G\	-ni-	.	.	.	.	.	.	8G/	-ni-	.	.	.	.
1GG,	-a,	.	.	4.b-\	-ro-	4.G\	o(m)-	1G	-a	4.g\	o(m)-	4.dd\	o(m)-
.	.	.	.	8b-\	-ma-	8G\	-(n)i-	.	.	8g\	-(n)i-	8dd\	-(n)i-
.	.	.	.	2b-\	-ta	2G\	-a	.	.	2g,\	-a,	4dd,\	-a
.	.	.	.	.	.	.	.	.	.	.	.	2g/	Su-
*	*	*	*	*	*ij	*	*	*	*	*	*	*	*
4C/	Su-	.	.	4cc\	su-	4C/	Su-	4G/	su-	4e\	Su-	.	.
4C/	-per	.	.	4g/	-per	4C/	-p(er)	4E/	-per	4e\	-p(er)	4cc\	-p(er)
*	*	*	*	*	*	*	*	*	*Xij	*	*	*	*
!LO:SIC:v:t=custos C	!	!	!	!	!	!	!	!LO:SIC:v:t=custos E	!	!	!	!	!
!LO:LB:g=original	!	!	!	!	!	!	!	!LO:LB:g=original	!	!	!	!	!
=59-	=59-	=59-	=59-	=59-	=59-	=59-	=59-	=59-	=59-	=59-	=59-	=59-	=59-
4.C/	om-	0ryy	0ryy	4.g/	om-	4.C/	o(m)-	2.E/	o(m)-	4.e\	om-	4.cc\	o(m)-
8C/	-ni-	.	.	8g/	-ni-	8C/	-(n)i-	.	.	8e\	-ni-	8cc\	-(n)i-
!	!	!	!	!	!	!	!	!	!	!LO:SIC:v:t=custos e	!	!	!
!	!	!	!	!	!	!	!	!	!	!LO:LB:g=original	!	!	!
2C/	-a	.	.	4g/	-a	2C/	-a a-	.	.	2e\	-a	2cc\	-a
.	.	.	.	4g/	a-	.	.	4E/	-(n)i-	.	.	.	.
0GG	a-	.	.	1ryy	.	1ryy	.	2D/	-a	1g	a-	2.dd\	a-
.	.	.	.	.	.	.	.	1G/	a-	.	.	.	.
.	.	.	.	.	.	.	.	.	.	.	.	4cc\	.
=60-	=60-	=60-	=60-	=60-	=60-	=60-	=60-	=60-	=60-	=60-	=60-	=60-	=60-
.	.	0ryy	0ryy	4b-\	-ro-	0G	-ro-	.	.	1.g	-ro-	4b-\	.
.	.	.	.	4a\	-ma-	.	.	.	.	.	.	4a\	.
.	.	.	.	4b-\	-ta	.	.	2.D/	-ro-	.	.	2b-\	.
.	.	.	.	4cc\	su-	.	.	.	.	.	.	.	.
!	!	!	!	!LO:SIC:v:t=custos d	!	!	!	!	!	!	!	!	!
!	!	!	!	!LO:LB:g=original	!	!	!	!	!	!	!	!	!
*	*	*	*	*lig	*	*	*	*	*	*	*	*lig	*
1.D	-ro-	.	.	1dd	-per	.	.	.	.	.	.	1g	-ro-
.	.	.	.	.	.	.	.	4E/	.	.	.	.	.
.	.	.	.	.	.	.	.	4F#X/	.	4f#X\	.	.	.
.	.	.	.	.	.	.	.	4G/	.	4e\	.	.	.
=61-	=61-	=61-	=61-	=61-	=61-	=61-	=61-	=61-	=61-	=61-	=61-	=61-	=61-
*	*	*	*	*col	*	*	*	*	*	*	*	*col	*
.	.	0ryy	0ryy	2.a\	om-	1D	-ma-	2A/	-ma-	2f#X\	.	2.dd\	-ma-
2D/	-ma-	.	.	.	.	.	.	2A/	.	2f#\	-ma-	.	.
*	*	*	*	*Xlig	*	*	*	*	*	*	*	*Xlig	*
.	.	.	.	4a\	-ni-	.	.	.	.	.	.	4dd\	.
*	*	*	*	*Xcol	*	*	*	*	*	*	*	*Xcol	*
!	!	!	!	!LO:N:acc=#	!	!	!	!	!	!	!	!	!
00GG	-ta.	.	.	00bn	-a	00G	-ta	00G	-ta.	00g	-ta.	00dd	-ta
*	*	*	*	*	*Xij	*	*	*	*	*	*	*	*
=62-	=62-	=62-	=62-	=62-	=62-	=62-	=62-	=62-	=62-	=62-	=62-	=62-	=62-
.	.	0ryy	0ryy	.	.	.	.	.	.	.	.	.	.
.	.	.	.	.	.	.	.	.	.	.	.	.	.
=63-	=63-	=63-	=63-	=63-	=63-	=63-	=63-	=63-	=63-	=63-	=63-	=63-	=63-
.	.	0ryy	0ryy	.	.	.	.	.	.	.	.	.	.
1r	.	.	.	1r	.	1r	.	1r	.	1r	.	1r	.
=	=	=	=	=	=	=	=	=	=	=	=	=	=
*-	*-	*-	*-	*-	*-	*-	*-	*-	*-	*-	*-	*-	*-
!!!system-decoration: [(s1,s2,s3,s4)][(s5,s6,s7,s8)]
!!!ENC: Andrzej Gręziak
!!!END: 2022-06-16
!!!ENC: Urszula Świątek
!!!END: 2022–07–26
